X:1
T:Title
%%score { ( 1 4 ) | ( 2 3 ) }
L:1/8
Q:1/4=75
M:6/8
K:C
V:1 treble nm="Grand Piano"
V:4 treble 
V:2 bass 
V:3 bass 
V:1
 [EG]2 [CE] [CE]2 [Ec] | .[Fc]2 [CFA] [CEG]2 [G,CE] | [G,DF]2 [G,B,G] [G,CE]2 [CEA] | %3
w: Hubert~P.~Main * * *|||
 [B,G]A^F G2 G | z A[FB] [Ec]2 [EG] | [EG][FA][G_B] A2 A | z B[F^c] [Fd]2 [FA] | %7
w: ||||
 [^FA][GB][Ac] [GB]2 [Gc] | [Ac]B[CFA] .[CEG]2 [A,DF] | [CE]2 [F,B,D] [E,C]3 | [A,CF]3 [G,CE]3 |] %11
w: ||||
V:2
 [C,C]2 [C,G,] [C,G,]2 [C,^G,] | z[K:treble] B[K:bass]C, C,2 C, | G,,2 G,, C,2 A,, | %3
 z C[D,A,D] [G,B,D]2 [F,B,D] | [E,C]2 [E,G,] [C,G,]2 [C,C] | [C,C]2 [E,C] [F,CF]2 [G,^CE] | %6
 [F,D]2 [E,A,] [D,A,]2 [D,D] | [D,D]2 [^F,D] [G,D]2 [E,C] | z GF, z B,F, | G,2 G,, C,3 | %10
 F,,3 C,3 |] %11
V:3
 x6 | .[C,A,]3[K:treble][K:bass] z3 | x6 | .D,3 z3 | x6 | x6 | x6 | x6 | .[F,C]3 .C,3 | x6 | x6 |] %11
V:4
 x6 | x6 | x6 | .D3 z3 | .G3 z3 | x6 | .A3 z3 | x6 | x6 | x6 | x6 |] %11

